X:222
T:Derry Craig Wood
T:Mulvihill's
T:(Father Grady's Trip to Brocagh)
R:reel
C:Father P.J. Kelly
H:See also #499
D:De Danann: The Mist Covered Mountain
D:Arty McGlynn & Nollaig Casey: Lead the Knave
Z:id:hn-reel-222
M:C|
K:G
Bd~d2 eB~B2|eBdB AGED|B,D~D2 EDB,D|~G3A BA~A2|
Bd~d2 eB~B2|eBdB AGED|B,DGE FGAB|1 cAFA G2GA:|2 cAFA GABc||
|:d2Bd gd~d2|edBd gdBd|e2^ce ae~e2|afge fded|
Bd~d2 gdBd|d2Bd gdBd|c2cB cBAB|1 cAFA GABc:|2 cAFA G2GA||
|:BAGE DB,EB,|DB,DG B2AB|cBAG FDDE|FEFG A2GA|
BAGE DB,EB,|DB,DG B2AB|c2cd cBAB|cAFA G2GA:|
P:Variations:
|:Bd~d2 eBdB|eBGB AGED|B,D~D2 EDB,D|~G3A BA~A2|
Bd~d2 ed (3Bcd|eBGB AGED|1 GEDB, DEGB|cAFD G2GA:|2 B,D~D2 EGAB|cAFD GABc||
|:d2Bd gdBd|d2Bd gdBd|e2^ce ae~e2|afge fded|
Bd~d2 gd (3Bcd|edBd gdBd|~c3d cBAB|1 cAFA GABc:|2 cAFA G2GA||
|:BAGE DB,~B,2|DB,DG B2AB|cBAG FDDE|FEFG A2GA|
BAGE DB,~B,2|DB,DG B2AB|~c3B cBAB|cAFA G2GA:|

